packages/tokens/icons/receipt1/size24Px.svg

<svg viewBox="0 0 24 24" fill="none" xmlns="http://www.w3.org/2000/svg" width="1em" height="1em"><path d="M5.5 4C5.5 3.72386 5.72386 3.5 6 3.5L18 3.5C18.2761 3.5 18.5 3.72386 18.5 4L18.5 19.6743C18.5 20.0065 18.182 20.2463 17.8626 20.155L15.9121 19.5977C15.6427 19.5208 15.3573 19.5208 15.0879 19.5977L12.1374 20.4407C12.0476 20.4664 11.9524 20.4664 11.8626 20.4407L8.91208 19.5977C8.64275 19.5208 8.35725 19.5208 8.08792 19.5977L6.13736 20.155C5.81795 20.2463 5.5 20.0065 5.5 19.6743L5.5 4Z" stroke="currentColor" stroke-linecap="round" stroke-linejoin="round"/><path d="M8.5 7.5H9.5M11.5 7.5H15.5M8.5 10.5H9.5M11.5 10.5L15.5 10.5M8.5 13.5H9.5M11.5 13.5H15.5M8.5 16.5H9.5M11.5 16.5H15.5" stroke="currentColor" stroke-linecap="round" stroke-linejoin="round"/></svg>

<svg xmlns="http://www.w3.org/2000/svg" fill="none" viewBox="0 0 24 24" width="1em" height="1em"><path stroke="currentColor" stroke-linecap="round" stroke-linejoin="round" d="M5.5 4a.5.5 0 0 1 .5-.5h12a.5.5 0 0 1 .5.5v15.674a.5.5 0 0 1-.637.481l-1.95-.557a1.501 1.501 0 0 0-.825 0l-2.95.843a.5.5 0 0 1-.275 0l-2.95-.843a1.501 1.501 0 0 0-.825 0l-1.95.557a.5.5 0 0 1-.638-.48V4Zm3 3.5h1m2 0h4m-7 3h1m2 0h4m-7 3h1m2 0h4m-7 3h1m2 0h4"/></svg>
